X:1
T:A WHOLE NEW WORLD
T:A WHOLE NEW WORLD
T:ALADDIN
L:1/8
M:4/4
K:C
V:1 treble nm="Piano" snm="Pno."
V:1
 z8 | z8 | z8 | z8 | e2 df- fe c2 | G8 | e2 df- fe c2 | e4 d4 | d2 ^ce- ed B2 | d2 =c2 B2 c2 | %10
w: ||||I can show _ you the|world,|shin- ing, shim- * mer- ing,|splen- did.|Tell me prin- * cess, now|when did you last|
 A B2 d- d c2 G- | G8 | e2 df- fe c2 | G8 | e2 df- fe c2 | e4 d4 | d2 ^ce- ed B2 | d2 =c2 B2 c2 | %18
w: let your heart _ de- cide?|_|I can o- * pen your|eyes|take you won- * der by|won- der|o- ver, side- * ways and|un- der on a|
 A B2 d- d c2 e- | e3 e f2 a2 | g8- | g3 e f2 a2 | g d2 f- fe z e- | e4 (3e2 f2 g2 | b2 a2 g3 c | %25
w: mag- ic car- * pet ride.|_ A whole new|world|_ a new fan-|tas- tic point _ of view.|_ No- one to|tell us no or|
 b2 c'2 g3 c | e d2 c- cA c2 | d3 e f2 a2 | g8- | g3 e f2 a2 | g d2 f- fe z e- | e4 (3e2 f2 g2 | %32
w: where * go or|say we're on- * ly dream-|ing A whole new|world|_ a daz- zling|place I nev- * er knew.|_ But when I'm|
 b2 a2 g3 c | b2 c'2 g3 c | e2 d2 c2 d2 | f2 e2 c2 B2 | c8- | c4- c z z2 |[K:Eb] g2 fa- ag e2 | %39
w: way up here it's|crys- tal clear that|now I'm in a|whole new world with|you.|_ _|Un- be- liev- * a- ble|
 B6 z2 | g2 fa- ag e2 | g4 f4 | f2 =eg- gf d2 | f2 _e2 d2 e2 | c d2 f- f e2 g- | g3 G A2 c2 | B8- | %47
w: sights|in- de- scrib- * a- ble|fee- ing.|Soar- ing, tum- * bling, free-|wheel- ing through an|end- less dia- * mond sky.|_ A whole new|world|
 B3 G A2 c2 | B2 F2 A3 G | G4 (3G2 A2 B2 | d2 c2 B3 E | d2 e2 B3 E | G2 F2 E2 F2 | A2 z G A2 c2 | %54
w: _ a hun- dred|thou- sand things to|see. I'm like a|shoot- ing star I've|come * far I|can't go back to|where A whole new|
 B8- | B3 G A2 c2 | B F2 A- A G2 G | G4 (3G2 A2 B2 | d2 c2 B3 E | d2 e2 B3 E | G2 F2 E2 F2 | %61
w: world|_ with new ho-|ri- zons to _ pur- sue.|see. I'm like a|shoot- ing star I've|come * far I|can't go back to|
 A2 G2 E2 D2 | E8 | z8 | z8 | z8 | z8 | z8 | z8 | z8 | z8 | z8 |[K:E] z3 G A2 c2 | B8- | %74
w: where * * *|||||||||||A whole new|world|
 B3 G A2 c2 | B F2 A- AG z G- | G4 (3z2 e2 d2 | d2 c2 B3 E | d2 c2 B3 E | !fermata!G F2 E- EC E2 | %80
w: _ a new fan-|tas- tic point _ of view.|_|tell us no or|where to go or|say we're on- * ly dream-|
 F3 G A2 c2 | B8- | B3 G A2 c2 | B F2 A- AG z G- | G4 (3G2 A2 B2 | d2 c2 B3 E | d2 e2 B3 E | %87
w: ing A whole new|world|_ a daz- zling|place I nev- * er knew.|_ But when I'm|way up here it's|crys- tal clear that|
 G2 F2 E2 F2 | A2 G2 E2 D2 | E8- | E4- E z z2 |] %91
w: now I'm in a|whole new world with|you.|_ _|

